%
(Header)
(Generated by gcodetools from Inkscape.)
(Using default header. To add your own header create file "header" in the output dir.)
M3
(Header end.)
G21 (All units in mm)
M5

(Start cutting path id: path194723)
(Change tool to Default tool)

G00 X29.448654 Y47.721157
M3S030
G01  F100.0(Penetrate)
G03 X28.197634 Y46.792388  I18.702128 J-26.498032 F3000.000000
G03 X26.961616 Y45.778863  I20.349328 J-26.076956
G03 X25.285601 Y44.235978  I22.448841 J-26.067640
G03 X23.652644 Y42.531647  I27.960843 J-28.424328
G03 X22.503595 Y41.219748  I42.728414 J-38.583585
G02 X21.360233 Y39.893765  I-90.128774 J76.559834
G02 X19.836621 Y38.222389  I-42.271072 J37.003800
G02 X18.267444 Y36.675870  I-23.956394 J22.738049
G02 X16.764267 Y35.378191  I-20.444891 J22.163053
G02 X15.261190 Y34.240672  I-18.864972 J23.365682
G02 X13.794136 Y33.307444  I-10.107269 J14.269096
G02 X12.168400 Y32.617066  I-3.794934 J6.677128
G02 X11.130281 Y32.452898  I-1.149533 J3.904719
G02 X10.200578 Y32.820175  I-0.034834 J1.272158
G02 X9.829992 Y33.352107  I1.250015 J1.265913
G02 X9.616698 Y34.095776  I2.422882 J1.097340
G02 X9.794607 Y35.504623  I2.740961 J0.369527
G02 X10.438631 Y36.791874  I8.487987 J-3.441888
G02 X11.686566 Y38.558659  I12.765404 J-7.692484
G02 X12.925669 Y39.951978  I18.342372 J-15.064544
G02 X14.513388 Y41.505228  I26.414209 J-25.412291
G02 X16.169659 Y42.938294  I24.049166 J-26.121243
G02 X18.378897 Y44.593265  I22.096098 J-27.194262
G02 X20.624836 Y46.040185  I24.288485 J-35.234529
G02 X22.486844 Y47.071338  I15.513270 J-25.816411
G02 X24.344615 Y47.808688  I4.900083 J-9.636860
G02 X25.604462 Y48.077803  I2.427679 J-8.281521
G02 X26.918189 Y48.156696  I1.176562 J-8.614556
G02 X27.758386 Y48.061282  I-0.066650 J-4.333909
G02 X28.561739 Y47.634900  I-0.347698 J-1.625099
G02 X28.824130 Y47.318561  I-1.262221 J-1.313955
G02 X29.015974 Y46.909990  I-1.349222 J-0.882852
G02 X29.068050 Y45.991083  I-1.831601 J-0.564730
G02 X28.799792 Y44.996589  I-6.527573 J1.227341
G02 X28.085446 Y43.507103  I-7.365948 J2.616615
G02 X27.242779 Y42.416494  I-5.605826 J3.460533
G02 X26.164573 Y41.473093  I-5.811657 J5.554256
G02 X25.123439 Y40.792888  I-7.199722 J9.883134
G02 X24.227769 Y40.321623  I-5.949344 J10.220353
G02 X23.025655 Y39.778187  I-16.602709 J35.124910
G02 X22.338943 Y39.546853  I-1.737645 J4.023259
G02 X21.901004 Y39.778187  I-0.089236 J0.361264
G02 X21.862098 Y39.937768  I0.662712 J0.246104
G02 X21.857577 Y40.126196  I0.949058 J0.117036
G02 X22.077997 Y40.621666  I0.801655 J-0.059868
G02 X22.463329 Y40.937784  I1.491100 J-1.424665
G02 X23.230992 Y41.270528  I1.433092 J-2.254345
G02 X23.933807 Y41.314688  I0.466837 J-1.814992
G02 X24.400963 Y41.190228  I-0.230603 J-1.804513
G02 X24.863831 Y40.879997  I-0.546444 J-1.315717
G02 X25.176894 Y40.450091  I-1.234586 J-1.227980
G02 X25.361176 Y39.894191  I-1.675078 J-0.863787
G02 X25.264236 Y38.847972  I-2.043152 J-0.338289
G02 X24.820405 Y37.806576  I-9.853727 J3.584272
G02 X24.038891 Y36.352020  I-20.694333 J10.181577
G02 X23.241519 Y35.168690  I-9.614265 J5.618133
G02 X22.253066 Y34.075282  I-7.477837 J5.766555
G02 X21.165290 Y33.284184  I-3.596570 J3.801954
G02 X20.456091 Y32.985100  I-1.835842 J3.362828
G02 X19.737921 Y32.878388  I-0.709827 J2.307139
G02 X19.312699 Y32.943073  I0.003275 J1.451514
G02 X18.872878 Y33.226397  I0.286820 J0.928292
G02 X18.735730 Y33.419236  I0.816550 J0.725923
G02 X18.678252 Y33.632193  I0.395199 J0.220903
G02 X18.745994 Y33.874181  I0.439466 J0.007451
G02 X18.915988 Y34.096202  I1.307102 J-0.824710
G02 X19.546382 Y34.531179  I1.284026 J-1.186594
G02 X20.127175 Y34.705107  I1.230960 J-3.053839
G02 X21.081120 Y34.842194  I1.714931 J-8.546004
G02 X22.051887 Y34.878898  I0.854895 J-9.754633
G02 X23.205226 Y34.820577  I-0.172327 J-14.841158
G03 X24.344298 Y34.762894  I1.311722 J14.627339
G03 X25.186890 Y34.788423  I0.114395 J10.142370
G03 X26.052829 Y34.878898  I-0.969256 J13.465882
G03 X27.074194 Y35.085458  I-1.121426 J8.173487
G03 X28.020968 Y35.545591  I-0.725192 J2.696277
G03 X28.384735 Y35.864349  I-1.865565 J2.495927
G03 X28.777921 Y36.270500  I-46.148689 J45.068876
G03 X28.898498 Y36.410272  I-1.257305 J1.206542
G03 X28.972547 Y36.589188  I-0.290791 J0.225134
G03 X28.960722 Y36.774390  I-0.491624 J0.061590
G03 X28.886011 Y36.907875  I-0.290172 J-0.074759
G03 X28.754891 Y36.961802  I-0.127102 J-0.122672
G03 X28.604849 Y36.936781  I0.012182 J-0.535443
G03 X28.329815 Y36.799012  I0.295351 J-0.933035
G03 X28.085950 Y36.618093  I5.499578 J-7.667861
G02 X27.569084 Y36.239395  I-8.477902 J11.028982
G03 X27.047835 Y35.835397  I3.771663 J-5.404562
G03 X26.669341 Y35.483435  I4.236139 J-4.934974
G02 X26.290883 Y35.110488  I-17.500865 J17.380946
G03 X25.842192 Y34.639206  I5.325296 J-5.519255
G03 X25.468949 Y33.921995  I1.287895 J-1.125957
G03 X25.398132 Y33.295739  I2.391009 J-0.587508
G03 X25.555485 Y32.907294  I0.580701 J0.009140
G03 X25.766086 Y32.798563  I0.259218 J0.243758
G03 X26.031275 Y32.791293  I0.165612 J1.200729
G03 X26.593378 Y32.930012  I-0.150952 J1.819887
G03 X27.090944 Y33.197089  I-1.206857 J2.845402
G03 X27.722404 Y33.677622  I-3.295063 J4.985151
G02 X28.366795 Y34.211790  I11.092969 J-12.726170
G02 X29.215867 Y34.824707  I7.740394 J-9.828165
G03 X30.032217 Y35.400280  I-8.955773 J13.568943
G03 X30.627849 Y35.864986  I-12.388154 J16.492462
G02 X31.308068 Y36.356768  I4.816314 J-5.945469
G02 X31.683929 Y36.540982  I0.978732 J-1.521399
G02 X32.043465 Y36.472346  I0.120980 J-0.342270
G02 X32.168979 Y36.317828  I-0.383737 J-0.439944
G02 X32.216537 Y36.124763  I-0.325926 J-0.182676
G02 X32.155085 Y35.943114  I-0.327312 J0.009511
G02 X32.021911 Y35.776758  I-1.674484 J1.204002
G02 X31.676513 Y35.402512  I-11.414924 J10.188513
G03 X31.373049 Y35.080744  I27.373452 J-26.120281
G03 X31.137819 Y34.824760  I18.717666 J-17.436227
G03 X30.897260 Y34.558944  I162.486818 J-147.289523
G03 X31.176749 Y34.763588  I-10.704854 J14.913125
G03 X31.452929 Y34.981315  I-4.024912 J5.389520
G03 X31.881722 Y35.361121  I-5.879617 J7.069923
G02 X32.318288 Y35.742339  I5.202917 J-5.517733
G02 X33.009364 Y36.201673  I2.819629 J-3.492644
G02 X33.694622 Y36.427305  I0.977120 J-1.814170
G02 X33.956796 Y36.429450  I0.139126 J-0.981457
G02 X34.262338 Y36.313000  I-0.085490 J-0.683376
G02 X34.446620 Y36.150431  I-0.587181 J-0.851339
G02 X34.517824 Y35.989641  I-0.213704 J-0.190797
G02 X34.417159 Y35.787610  I-0.209122 J-0.021896
G03 X34.077854 Y35.571098  I3.990666 J-6.628045
G03 X33.693396 Y35.193584  I0.833069 J-1.232913
G03 X33.567197 Y34.734013  I0.577410 J-0.405671
G03 X33.655408 Y34.399207  I0.956027 J0.072861
G03 X33.836948 Y34.182469  I0.501300 J0.235492
G03 X34.062934 Y34.114962  I0.212698 J0.300019
G03 X34.305129 Y34.144226  I-0.052469 J1.451137
G03 X34.835419 Y34.288614  I-0.902152 J4.359299
G03 X35.332149 Y34.483312  I-1.868687 J5.498546
G03 X35.855382 Y34.742549  I-2.967460 J6.647055
G03 X36.382310 Y35.053974  I-4.359718 J7.978098
G03 X36.927168 Y35.428747  I-5.108898 J8.010932
G03 X37.460680 Y35.852816  I-5.916921 J7.991599
G02 X37.025568 Y35.139891  I-39.664231 J23.718660
G02 X36.581058 Y34.445069  I-28.879563 J17.985963
G02 X35.513021 Y32.908708  I-30.223315 J19.871046
G02 X34.415439 Y31.433681  I-116.279775 J85.378999
G02 X33.312963 Y29.977244  I-405.355764 J305.695645
G02 X32.209564 Y28.534477  I-229.601725 J174.451637
G02 X31.239684 Y27.279378  I-333.194760 J256.474418
G03 X30.262980 Y26.012171  I201.400067 J-156.239782
G02 X29.545271 Y25.090617  I-56.551445 J43.302190
G02 X28.814056 Y24.272560  I-7.229433 J5.726155
G02 X28.448784 Y23.961551  I-2.227859 J2.246562
G02 X28.013995 Y23.779659  I-0.600252 J0.824223
G02 X27.748937 Y23.777623  I-0.139057 J0.848644
G02 X27.559760 Y23.895660  I0.040906 J0.276175
G02 X27.486263 Y24.173786  I0.349936 J0.241247
G02 X27.559760 Y24.620569  I2.964008 J-0.258151
G02 X27.945949 Y25.501199  I2.706847 J-0.662057
G02 X28.381694 Y26.098853  I7.114612 J-4.729529
G03 X29.304976 Y27.287900  I-49.011485 J39.009917
G02 X30.263297 Y28.476261  I20.005316 J-15.152137
G02 X31.810902 Y30.090231  I15.346842 J-13.166826
G02 X33.399196 Y31.520368  I40.474990 J-43.354034
G02 X35.436618 Y33.272427  I181.866418 J-209.426866
G03 X37.465119 Y35.057372  I-53.986154 J63.397662
G03 X39.005870 Y36.498256  I-50.546176 J55.593741
G03 X40.536038 Y37.985475  I-141.946167 J147.576196
G03 X42.670743 Y40.096460  I-297.813463 J303.294762
G03 X44.796589 Y42.218071  I-1000.940217 J1005.063504
G03 X46.406040 Y43.835092  I-356.235118 J356.177003
G03 X48.019022 Y45.493754  I-87.882239 J87.075585
G03 X48.826266 Y46.376086  I-20.779215 J19.821293
G03 X49.576353 Y47.378260  I-6.065371 J5.321476
G03 X49.683071 Y47.561902  I-2.413533 J1.525393
G03 X49.770980 Y47.784056  I-0.939952 J0.500419
G03 X49.810901 Y48.049169  I-1.126548 J0.305198
G03 X49.770980 Y48.276957  I-0.560028 J0.019245
G03 X49.579301 Y48.483462  I-0.364058 J-0.145710
G03 X49.316746 Y48.566753  I-0.410692 J-0.839148
G03 X48.905559 Y48.558652  I-0.183134 J-1.144072
G03 X48.538238 Y48.450749  I0.430662 J-2.145203
G03 X48.098924 Y48.247363  I1.471814 J-3.755283
G03 X47.651640 Y47.987165  I3.687926 J-6.854139
G03 X46.724064 Y47.328559  I5.381723 J-8.562076
G03 X45.856574 Y46.566668  I7.669175 J-9.606945
G03 X45.234984 Y45.906660  I6.623496 J-6.860662
G03 X44.580723 Y45.030170  I6.238691 J-5.339339
G03 X44.453734 Y44.806316  I1.813250 J-1.176575
G03 X44.407651 Y44.566161  I0.416183 J-0.204359
G03 X44.429447 Y44.457737  I0.466042 J0.037284
G03 X44.472633 Y44.363048  I0.446498 J0.146446
G03 X44.690750 Y44.197850  I0.313330 J0.187108
G03 X44.948423 Y44.159939  I0.288905 J1.069003
G03 X45.320369 Y44.182643  I0.057158 J2.121713
G03 X45.640711 Y44.275943  I-0.184440 J1.229850
G03 X46.033732 Y44.522575  I-0.657195 J1.483741
G02 X46.505753 Y44.884848  I3.909583 J-4.605318
G03 X46.716627 Y45.048465  I-1.407629 J2.031891
G03 X46.830024 Y45.290644  I-0.215188 J0.248397
G03 X46.825687 Y45.354412  I-0.396952 J0.005037
G03 X46.808461 Y45.406645  I-0.160679 J-0.024036
G03 X46.711729 Y45.466491  I-0.099714 J-0.053075
G03 X46.592277 Y45.435551  I-0.005899 J-0.223284
G03 X46.472168 Y45.288116  I0.138371 J-0.235368
G03 X46.397652 Y45.058650  I8.206314 J-2.791699
G02 X46.270208 Y44.683197  I-7.016951 J2.172496
G03 X46.203025 Y44.305271  I1.014947 J-0.375358
G03 X46.262398 Y43.941809  I1.150123 J0.001298
G03 X46.419206 Y43.696366  I0.567596 J0.189812
G03 X46.682795 Y43.590056  I0.267770 J0.283989
G03 X46.981533 Y43.609258  I0.021423 J2.000203
G03 X47.522527 Y43.700058  I-1.608360 J11.239714
G03 X48.019647 Y43.812367  I-1.520109 J7.884955
G03 X48.620824 Y43.990353  I-2.240362 J8.671482
G03 X49.230833 Y44.218163  I-2.989079 J8.934501

M5
(End cutting path id: path194723)


(Start cutting path id: path194727)
(Change tool to Default tool)

G00 X47.030675 Y31.963968
M3S030
G01  F100.0(Penetrate)
G03 X47.296316 Y32.838654  I-11.194356 J3.877392 F3000.000000
G02 X47.538797 Y33.748619  I109.343371 J-28.649740
G03 X47.809923 Y34.826786  I-29.495518 J7.990401
G03 X47.889061 Y35.956063  I-3.499616 J0.812660
G03 X47.728055 Y36.708104  I-3.134778 J-0.277876
G03 X47.398689 Y37.247809  I-1.403195 J-0.485974
G03 X46.841186 Y37.555440  I-0.770781 J-0.737864
G03 X46.242658 Y37.529527  I-0.247333 J-1.212436
G03 X45.688198 Y37.209413  I0.389785 J-1.315374
G03 X45.208979 Y36.566667  I1.621089 J-1.708674
G03 X44.917741 Y35.691222  I2.792673 J-1.415219
G03 X44.946202 Y34.782016  I2.205409 J-0.386011
G03 X45.380961 Y33.953335  I1.861650 J0.448308
G03 X46.015066 Y33.490270  I1.403170 J1.255759
G03 X46.690713 Y33.350843  I0.653237 J1.458747
G03 X47.346387 Y33.443529  I-0.036823 J2.625979
G03 X48.175189 Y33.772648  I-1.064312 J3.888321
G03 X48.993108 Y34.241949  I-6.903577 J12.979268
G03 X50.058711 Y34.938947  I-12.632909 J20.476844
G03 X51.095330 Y35.744879  I-6.782555 J9.793611
G03 X52.510851 Y37.169949  I-9.061446 J10.416283
G03 X53.880647 Y38.797479  I-84.010376 J72.096743
G02 X55.283553 Y40.481833  I179.755449 J-148.292740
G02 X56.683398 Y42.132226  I194.720480 J-163.740932
G02 X58.093957 Y43.773435  I350.622524 J-299.920453
G03 X59.521335 Y45.443179  I-166.073537 J143.412645
G02 X60.651063 Y46.737844  I42.893455 J-36.288694
G02 X61.816282 Y47.767897  I5.075631 J-4.567582
G02 X63.176422 Y48.454835  I3.078594 J-4.405620
G02 X64.619034 Y48.801294  I2.646291 J-7.842157
G02 X65.694218 Y48.885216  I1.153147 J-7.844334
G02 X66.686072 Y48.754554  I0.035046 J-3.563866
G02 X67.230421 Y48.523589  I-0.620155 J-2.218566
G02 X67.877288 Y48.002878  I-1.425372 J-2.432855
G02 X68.054862 Y47.778611  I-1.396069 J-1.287841
G02 X68.104882 Y47.556713  I-0.258826 J-0.174932
G02 X68.062075 Y47.438162  I-0.319877 J0.048498
G02 X67.982210 Y47.322158  I-0.999252 J0.602464
G02 X67.794170 Y47.120545  I-1.219096 J0.948523
G02 X67.614193 Y46.993275  I-0.639192 J0.713014
G02 X67.208565 Y46.866064  I-0.520891 J0.950623
G02 X66.773559 Y46.828831  I-1.097520 J10.263010
G03 X65.649504 Y46.716397  I1.006941 J-15.741840
G02 X64.566414 Y46.617222  I-1.662753 J12.195170
G02 X63.234960 Y46.637279  I-0.503137 J10.803519
G03 X61.886017 Y46.734500  I-10.982868 J-142.980607
G03 X60.701177 Y46.789730  I-1.902933 J-28.086276
G03 X59.521017 Y46.781240  I-0.460325 J-18.039791
G03 X58.268230 Y46.682619  I0.636139 J-16.087318
G03 X57.015913 Y46.476150  I1.626148 J-13.764415
G03 X56.138607 Y46.259063  I2.840983 J-13.362400
G03 X55.264273 Y45.982824  I4.111005 J-14.533685

M5
(End cutting path id: path194727)


(Start cutting path id: path194729)
(Change tool to Default tool)


G00 X51.478877 Y38.084469
M3S030
G01  F100.0(Penetrate)
G02 X52.186169 Y38.382998  I1.616218 J-2.842096 F3000.000000
G02 X52.904026 Y38.500464  I0.848016 J-2.930162
G02 X53.495879 Y38.459022  I0.113247 J-2.629623
G02 X54.099365 Y38.254010  I-0.402071 J-2.174302
G02 X54.346801 Y38.095458  I-0.677438 J-1.329555
G02 X54.559305 Y37.838018  I-0.491130 J-0.621831
G02 X54.622205 Y37.678338  I-0.766473 J-0.394152
G02 X54.651231 Y37.498935  I-0.761236 J-0.215209
G02 X54.621213 Y37.238481  I-0.832049 J-0.036062
G02 X54.536482 Y36.990308  I-2.247778 J0.628884
G02 X54.382173 Y36.666056  I-2.892696 J1.177770
G02 X54.203017 Y36.405200  I-1.387995 J0.761323

M5
(End cutting path id: path194729)




(Start cutting path id: path194731)
(Change tool to Default tool)


G00 X56.797830 Y35.767400
M3S030
G01  F100.0(Penetrate)
G02 X56.880360 Y35.553224  I-1.254568 J-0.606425 F3000.000000
G02 X56.925573 Y35.311039  I-1.174744 J-0.344621
G02 X56.913837 Y35.005702  I-1.267063 J-0.104193
G02 X56.840306 Y34.721252  I-1.543997 J0.247399
G02 X56.600482 Y34.276466  I-1.605254 J0.578485
G02 X56.315384 Y33.903289  I-20.290709 J15.206123
G03 X55.996050 Y33.477668  I10.742598 J-8.392521
G02 X55.676981 Y33.066629  I-5.876877 J4.232579
G02 X55.883342 Y33.398062  I12.281962 J-7.417177
G02 X56.092545 Y33.723548  I215.671322 J-138.390882
G02 X56.479780 Y34.311503  I27.998240 J-18.018544
G02 X56.899264 Y34.845753  I3.879620 J-2.614397
G02 X57.380348 Y35.287981  I2.755383 J-2.514691
G02 X57.855597 Y35.572787  I1.462355 J-1.901273
G02 X58.135400 Y35.670819  I0.690478 J-1.522443
G02 X58.476247 Y35.727031  I0.501243 J-1.977847
G02 X58.531381 Y35.727908  I0.036047 J-0.532553
G02 X58.568173 Y35.711308  I-0.001907 J-0.053299
G02 X58.593198 Y35.628012  I-0.067583 J-0.065712
G02 X58.545355 Y35.480580  I-0.605127 J0.114894
G02 X58.440879 Y35.353493  I-0.304428 J0.143776
G03 X58.338365 Y35.249424  I0.277401 J-0.375779
G03 X58.255523 Y35.078143  I0.459943 J-0.328133
G03 X58.257851 Y34.925638  I0.250685 J-0.072442
G03 X58.375575 Y34.832065  I0.129697 J0.042330
G03 X58.579904 Y34.833432  I0.094958 J1.077830
G03 X58.811945 Y34.879663  I-0.118923 J1.202326
G03 X59.004977 Y34.971953  I-0.206256 J0.679420

M5
(End cutting path id: path194731)


(Start cutting path id: path194733)
(Change tool to Default tool)

G00 X60.818741 Y32.753465
M3S030
G01  F100.0(Penetrate)
G02 X60.220034 Y32.356058  I-2.792118 J3.556729 F3000.000000
G02 X59.634816 Y32.075722  I-2.636733 J4.753329
G02 X59.047319 Y31.895721  I-1.284836 J3.144769
G02 X58.301590 Y31.829271  I-0.653432 J3.115427
G02 X58.039025 Y31.865947  I0.033590 J1.198682
G02 X57.876517 Y32.029407  I0.055474 J0.217661
G02 X57.866772 Y32.093553  I0.339357 J0.084371
G02 X57.865095 Y32.167928  I1.051132 J0.060899
G02 X57.871411 Y32.280948  I1.338953 J-0.018134
G02 X57.887914 Y32.383788  I0.849987 J-0.083653
G02 X58.049538 Y32.727517  I0.847410 J-0.188595
G02 X58.290163 Y32.999916  I2.263380 J-1.756895
G02 X59.152775 Y33.732056  I5.021199 J-5.041768
G02 X59.979675 Y34.278916  I7.266884 J-10.089565
G02 X60.747267 Y34.708592  I6.794803 J-11.238076
G02 X61.554440 Y35.049288  I2.599618 J-5.032461
G02 X61.885548 Y35.128365  I0.620036 J-1.863435
G02 X62.221052 Y35.079876  I0.086857 J-0.583957
G02 X62.350114 Y34.995321  I-0.225375 J-0.484783
G02 X62.450864 Y34.848722  I-0.244195 J-0.275743
G02 X62.481183 Y34.690430  I-0.444114 J-0.167114
G02 X62.462286 Y34.525359  I-0.628362 J-0.011683
G02 X62.298316 Y34.255231  I-0.515782 J0.128255
G02 X62.071448 Y34.063049  I-4.781162 J5.414077
G03 X61.682062 Y33.683041  I1.905511 J-2.342038
G03 X61.347461 Y33.277380  I11.314084 J-9.673011
G03 X61.094214 Y32.939072  I5.319467 J-4.245921
G03 X60.841877 Y32.476413  I1.926494 J-1.350867
G03 X60.757556 Y32.220691  I1.819719 J-0.741789
G03 X60.761363 Y32.014103  I0.377516 J-0.096373
G03 X60.916691 Y31.830304  I0.285655 J0.083873
G03 X61.163612 Y31.767649  I0.274432 J0.563645
G03 X61.459289 Y31.834968  I0.024920 J0.573539
G03 X61.715160 Y31.998380  I-0.928222 J1.735445
G03 X62.325016 Y32.508171  I-4.832089 J6.400233
G02 X62.933638 Y33.061521  I34.992879 J-37.876824
G02 X63.733097 Y33.740368  I13.341047 J-14.901195
G02 X64.542636 Y34.371115  I20.269253 J-25.179890
G02 X65.062800 Y34.739362  I6.306654 J-8.356929
G02 X65.600088 Y35.002966  I1.280897 J-1.931405
G02 X65.981221 Y35.082056  I0.513561 J-1.516976
G02 X66.358625 Y35.034001  I0.075657 J-0.911839
G02 X66.534164 Y34.944264  I-0.242277 J-0.690487
G02 X66.703501 Y34.771827  I-0.371572 J-0.534259
G02 X66.795352 Y34.586071  I-0.667666 J-0.445727
G02 X66.818248 Y34.386852  I-0.443903 J-0.151941
G02 X66.753220 Y34.199979  I-0.421554 J0.041942
G02 X66.634399 Y34.032472  I-1.863585 J1.196029
G02 X66.285156 Y33.602080  I-11.624238 J9.075633
G02 X65.956376 Y33.231076  I-7.686875 J6.480856
G02 X65.831033 Y33.098857  I-8.100817 J7.554039
G02 X65.703422 Y32.969328  I-5.950428 J5.734646
G02 X65.866719 Y33.206165  I4.401392 J-2.859994
G02 X66.036887 Y33.431212  I6.954054 J-5.081418
G02 X66.455938 Y33.919985  I5.505134 J-4.295811
G02 X66.898762 Y34.278922  I1.544861 J-1.453282
G02 X67.441168 Y34.500745  I0.966025 J-1.588083
G02 X68.002175 Y34.602282  I1.277747 J-5.459161
G02 X68.215823 Y34.615630  I0.206446 J-1.587914
G02 X68.438974 Y34.556393  I-0.002059 J-0.457695
G02 X68.623055 Y34.396240  I-0.304320 J-0.535655
G02 X68.714749 Y34.155695  I-0.355344 J-0.273202
G02 X68.661146 Y33.908952  I-0.443487 J-0.032850
G02 X68.507759 Y33.678088  I-1.436916 J0.788303
G02 X68.189918 Y33.351622  I-1.749483 J1.385308
G03 X67.887109 Y33.092555  I11.424865 J-13.660387
G03 X67.642684 Y32.846711  I1.632157 J-1.867166
G03 X67.450627 Y32.507018  I0.750653 J-0.648546
G03 X67.419293 Y32.402463  I1.939787 J-0.638310
G03 X67.736842 Y31.906644  I0.383649 J-0.103887
G03 X68.259927 Y31.989026  I-0.624090 J5.664529
G03 X68.784173 Y32.136911  I-0.759361 J3.695049
G03 X69.731385 Y32.612843  I-1.530968 J4.227523
G03 X70.671481 Y33.239995  I-68.528738 J103.742187
G02 X72.203398 Y34.215910  I19.519425 J-28.949797
G03 X73.728768 Y35.147444  I-65.417157 J108.834144
G03 X75.455245 Y36.263103  I-29.496730 J47.539724
G03 X77.173091 Y37.473864  I-26.811895 J39.865128
G03 X78.480148 Y38.481361  I-23.682500 J32.075654
G03 X79.762832 Y39.585699  I-15.866443 J19.725886
G03 X80.961890 Y40.763959  I-17.388213 J18.894390
G03 X82.139244 Y42.055317  I-28.549509 J27.211465
G03 X83.060591 Y43.152408  I-29.118986 J25.389822
G03 X83.933993 Y44.301001  I-18.780815 J15.187491
G03 X84.105502 Y44.548229  I-9.275078 J6.617495
G03 X84.278551 Y44.824922  I-3.933671 J2.652654
G03 X84.306512 Y44.876879  I-0.675511 J0.397029
G03 X84.324830 Y44.932852  I-0.189789 J0.093097
G03 X84.311773 Y45.062439  I-0.242048 J0.041062
G03 X84.244319 Y45.164009  I-0.263700 J-0.101943
G03 X84.152089 Y45.210612  I-0.122258 J-0.127389
G03 X84.060153 Y45.209897  I-0.043990 J-0.254892
G03 X83.955237 Y45.174379  I0.071009 J-0.382468
G03 X83.853479 Y45.117691  I0.675742 J-1.332657
G03 X83.598424 Y44.950356  I2.365784 J-3.884023
G03 X83.347895 Y44.763311  I3.319092 J-4.706902
G03 X82.357499 Y43.840787  I5.133681 J-6.504265
G02 X81.394018 Y42.791273  I-146.858283 J133.852834
G02 X80.066785 Y41.422059  I-30.099597 J27.848850
G03 X78.738982 Y40.079452  I50.075790 J-50.851492
G03 X77.298684 Y38.525532  I39.345607 J-37.913141
G02 X75.869346 Y36.926145  I-649.927917 J579.388223
G02 X74.631814 Y35.547936  I-518.331102 J464.179074
G03 X73.403862 Y34.142942  I47.035628 J-42.347808
G03 X72.609670 Y33.184498  I41.183699 J-34.934201
G03 X71.824979 Y32.200648  I68.201443 J-55.200384
G02 X72.289518 Y32.865191  I8.694857 J-5.583378
G03 X72.775288 Y33.524689  I-22.548203 J17.117125
G02 X73.384678 Y34.364790  I56.952223 J-40.670698
G02 X74.034657 Y34.899294  I1.382158 J-1.018310
G02 X74.361930 Y35.010883  I0.661237 J-1.403589
G03 X74.701903 Y35.096031  I-1.325329 J6.012955
G03 X75.134809 Y35.257569  I-0.747974 J2.665332
G03 X75.553949 Y35.500550  I-1.221895 J2.590759
G03 X75.957856 Y35.806452  I-3.753918 J5.376202
G02 X76.383491 Y36.056344  I1.007466 J-1.228565
G02 X76.632083 Y36.118936  I0.364243 J-0.921679
G02 X76.865937 Y36.086931  I0.055026 J-0.468309
G02 X77.027421 Y35.980030  I-0.188676 J-0.460430
G02 X77.190208 Y35.783541  I-0.914623 J-0.923424
G02 X77.265731 Y35.651764  I-0.844122 J-0.571300
G02 X77.295763 Y35.510746  I-0.278184 J-0.132951
G02 X77.279527 Y35.418704  I-0.313311 J0.007813
G02 X77.242828 Y35.328455  I-0.745762 J0.250672
G02 X77.000598 Y35.005932  I-0.932086 J0.447818
G02 X76.737559 Y34.772665  I-24.171954 J26.992028
G03 X76.449632 Y34.500420  I3.538687 J-4.030909
G02 X76.156849 Y34.236844  I-2.289854 J2.249192
G02 X75.964727 Y34.108796  I-0.845949 J1.061101
G02 X75.764741 Y34.054556  I-0.211849 J0.385301
G02 X75.674255 Y34.057157  I-0.020151 J0.874463
G03 X75.591354 Y34.044772  I-0.014859 J-0.184191
G03 X75.497273 Y33.968924  I0.076092 J-0.190657
G03 X75.410356 Y33.822541  I1.223839 J-0.825669
G03 X75.209497 Y33.307335  I2.341662 J-1.209680
G03 X75.091156 Y32.719884  I4.263104 J-1.164441
G03 X75.036880 Y31.908666  I6.308754 J-0.829524
G03 X75.194808 Y31.364397  I1.006840 J-0.002897
G03 X75.699980 Y31.090574  I0.498685 J0.317113
G03 X76.424382 Y31.194856  I-0.030520 J2.780230
G03 X77.409809 Y31.623109  I-1.077810 J3.827957
G03 X78.217546 Y32.150070  I-7.678804 J12.652774
G03 X80.442026 Y33.710061  I-693.223533 J990.872680
G03 X82.782400 Y35.413854  I-50.263221 J71.502171
G03 X84.844796 Y37.055520  I-29.974236 J39.772408
G03 X86.848323 Y38.921966  I-17.199742 J20.471531
G03 X88.747011 Y41.052047  I-24.651548 J23.884889
G02 X90.524993 Y43.183458  I122.130832 J-100.071907
G03 X91.110949 Y43.884865  I-44.692112 J37.931265
G03 X91.762488 Y44.766273  I-8.206389 J6.747697
G03 X91.914448 Y45.025569  I-2.260058 J1.498683
G03 X91.969477 Y45.289769  I-0.451087 J0.231786
G03 X91.952977 Y45.392461  I-0.542436 J-0.034487
G02 X91.923516 Y45.505628  I121.705379 J31.744175
G02 X91.870688 Y45.714450  I28.294368 J7.268934
G03 X91.797040 Y45.844711  I-0.271710 J-0.067672
G03 X91.650024 Y45.896273  I-0.127232 J-0.127399
G03 X91.463891 Y45.844711  I0.066548 J-0.601970
G03 X91.213074 Y45.668616  I0.347998 J-0.762332
G03 X91.003951 Y45.444013  I4.375564 J-4.283657
G02 X90.307791 Y44.716469  I-9.658876 J8.545381
G03 X89.578801 Y44.011195  I740.337536 J-765.961361
G03 X88.402551 Y42.829012  I31.331003 J-32.350042
G03 X87.265469 Y41.579821  I23.528131 J-22.558703
G03 X85.776046 Y39.771207  I37.382522 J-32.302699
G02 X84.259216 Y37.956130  I-30.099310 J23.612168
G02 X82.960033 Y36.555762  I-34.188532 J30.415361
G03 X81.729068 Y35.172927  I16.056975 J-15.532820
G03 X80.940399 Y34.170560  I25.219622 J-20.654424
G02 X80.020539 Y33.085311  I-10.135958 J7.658806
G03 X79.484199 Y32.473591  I7.393167 J-7.023117
G03 X79.220475 Y31.693709  I0.923765 J-0.746909
G03 X79.277540 Y31.334011  I1.415179 J0.040137
G03 X79.415103 Y31.084801  I0.631128 J0.185807
G03 X79.768783 Y30.954509  I0.297834 J0.263293
G03 X80.215164 Y31.055895  I-0.390704 J2.753517
G03 X81.604406 Y31.536073  I-7.945904 J25.238698
G03 X82.788738 Y32.012383  I-10.322580 J27.377375
G03 X83.906012 Y32.533668  I-7.540828 J17.620291
G03 X85.038041 Y33.259089  I-3.006719 J5.938011
G03 X85.426790 Y33.594343  I-3.984778 J5.013623
G03 X85.804502 Y33.967424  I-6.593833 J7.053435
G03 X85.584200 Y33.667176  I1.814702 J-1.562459
G02 X85.344562 Y33.300305  I-7.943960 J4.927240
G03 X85.061679 Y32.879699  I21.749025 J-14.932992
G03 X85.005074 Y32.501886  I0.379555 J-0.250012
G03 X85.106452 Y32.327850  I0.403663 J0.118594
G03 X85.269119 Y32.208695  I0.429634 J0.415910
G03 X85.602081 Y32.176621  I0.208216 J0.417211
G03 X85.924954 Y32.299625  I-0.496846 J1.789436
G03 X86.617979 Y32.680108  I-3.759256 J7.668625
G02 X87.275931 Y33.081473  I316.622711 J-518.294171
G02 X88.107843 Y33.584828  I70.865546 J-116.182929
G03 X88.954030 Y34.144614  I-5.950401 J9.914239
G02 X89.578102 Y34.594207  I52.187006 J-71.781802
G02 X90.218154 Y34.868671  I0.948847 J-1.329183
G02 X90.504240 Y34.875539  I0.163524 J-0.849820
G02 X90.804252 Y34.730151  I-0.077591 J-0.542347
G02 X90.925291 Y34.579543  I-0.497672 J-0.523906
G02 X90.976692 Y34.406787  I-0.307455 J-0.185502
G02 X90.914494 Y34.197929  I-0.340432 J-0.012311
G02 X90.758291 Y33.990795  I-3.405319 J2.405555
G03 X90.424592 Y33.545869  I6.553966 J-5.263129
G02 X90.137641 Y33.174105  I-4.101252 J2.868993
G02 X89.799762 Y32.822302  I-3.055909 J2.596800
G02 X89.436794 Y32.511659  I-4.393848 J4.766583
G02 X89.769954 Y32.927864  I6.533733 J-4.888623
G02 X90.114817 Y33.312626  I8.510672 J-7.281205
G02 X90.668734 Y33.854317  I6.581811 J-6.176312
G02 X91.252466 Y34.283560  I2.491756 J-2.777026
G02 X91.680993 Y34.491843  I1.453045 J-2.444563
G02 X92.103244 Y34.591626  I0.574371 J-1.487254
G02 X92.389101 Y34.585816  I0.118278 J-1.215633
G02 X92.700753 Y34.498994  I-0.166055 J-1.198824
G02 X92.846309 Y34.420305  I-0.353832 J-0.828473
G02 X92.953707 Y34.298858  I-0.175355 J-0.263279
G02 X92.992742 Y34.019461  I-0.394631 J-0.197561
G02 X92.884604 Y33.667007  I-1.632557 J0.308075
G02 X92.645559 Y33.293564  I-1.271910 J0.550936
G02 X92.401841 Y33.035581  I-4.907638 J4.392165
G03 X92.128668 Y32.751765  I8.814544 J-8.757379
G02 X91.838564 Y32.450048  I-9.980273 J9.305799
G03 X91.660014 Y32.253565  I2.259748 J-2.232871
G03 X91.528240 Y31.987738  I0.487766 J-0.407367
G03 X91.511054 Y31.719980  I0.813772 J-0.186661
G03 X91.585613 Y31.510131  I0.458552 J0.044752
G03 X91.745334 Y31.393063  I0.238949 J0.158518
G03 X91.941901 Y31.355887  I0.297532 J1.034933
G03 X92.444813 Y31.346752  I0.311980 J3.327585
G02 X92.895698 Y31.371610  I6.190779 J-108.190156
G02 X93.705236 Y31.383645  I0.561157 J-10.512785
G02 X94.539563 Y31.340575  I-0.352251 J-14.926225
G02 X95.528378 Y31.198973  I-0.627223 J-7.903193
G02 X96.553666 Y30.812830  I-0.723693 J-3.475794
G02 X97.257301 Y30.274460  I-1.584050 J-2.799314
G02 X97.749003 Y29.411028  I-1.365021 J-1.349065
G02 X97.817634 Y28.683390  I-2.203168 J-0.574861
G02 X97.680218 Y27.931892  I-3.358885 J0.225883
G02 X97.186612 Y26.963368  I-2.970031 J0.903623
G02 X96.553984 Y26.252620  I-4.749563 J3.590612
G02 X95.256404 Y25.222787  I-6.210359 J6.492606
G02 X93.944907 Y24.496017  I-5.658248 J8.663898
G02 X92.002337 Y23.789264  I-5.150661 J11.133986
G02 X90.037156 Y23.355964  I-5.533646 J20.424126
G02 X88.011404 Y23.077140  I-5.290838 J30.941462
G02 X85.991204 Y22.878356  I-17.246964 J164.913043
G03 X83.333186 Y22.632116  I228.572283 J-2481.712618
G02 X80.672886 Y22.386729  I-132.904536 J1426.289125
G02 X78.207014 Y22.172209  I-26.365095 J288.782304
G02 X75.741921 Y22.009828  I-6.084302 J73.573263
G02 X72.887524 Y21.926756  I-3.502005 J71.249696
G02 X70.032448 Y21.922720  I-1.690839 J186.242446
G02 X67.563174 Y21.950181  I1.551585 J250.543667
G02 X65.094189 Y22.011102  I2.298919 J143.232227
G02 X62.948013 Y22.102854  I3.760111 J113.099098
G02 X60.802259 Y22.245657  I3.942238 J75.428400
G02 X56.567209 Y22.693937  I6.963259 J86.013422
G02 X52.332510 Y23.259085  I109.240690 J834.697084
G03 X48.541821 Y23.767770  I-142.585221 J-1048.156090
G02 X44.751260 Y24.275485  I160.725277 J1214.362580
G02 X40.712189 Y24.823857  I893.587306 J6596.926598
G03 X36.675202 Y25.336075  I-30.344911 J-222.995347
G03 X31.888623 Y25.819868  I-17.041958 J-144.689858
G03 X27.083020 Y26.087329  I-7.074072 J-83.797401
G03 X22.351441 Y26.076676  I-2.183200 J-81.104924
G03 X17.688635 Y25.822182  I3.173547 J-100.988313
G03 X13.786811 Y25.365414  I3.930789 J-50.471321
G03 X9.645543 Y24.275485  I3.253282 J-20.773584
G03 X8.900823 Y23.929550  I1.904659 J-5.074872
G03 X8.261284 Y23.303274  I0.837556 J-1.494972
G03 X8.040749 Y22.775565  I1.826205 J-1.073127
G03 X7.964589 Y22.154299  I2.191210 J-0.583916
G03 X8.250405 Y21.097078  I2.230214 J0.035685
G03 X8.854674 Y20.298262  I3.230642 J1.815878
G03 X9.983164 Y19.524712  I2.614340 J2.603999
G03 X11.096051 Y19.105097  I4.447235 J10.109197
G03 X13.766965 Y18.351308  I13.379252 J42.298085
G03 X16.435924 Y17.867739  I5.075198 J20.404359
G03 X19.954481 Y17.750415  I2.478764 J21.518688
G03 X23.490033 Y18.000314  I-3.774003 J78.529461
G03 X28.888967 Y18.566514  I-21.953581 J235.359402
G03 X34.268994 Y19.237672  I-38.558858 J330.988123
G03 X39.448858 Y19.985558  I-30.947748 J232.656279
G03 X44.624784 Y20.940738  I-14.496137 J93.052810
G03 X50.610213 Y22.400851  I-22.277411 J104.319688
G02 X56.595911 Y24.017136  I185.880723 J-676.492975
G02 X62.016997 Y25.376264  I52.100557 J-196.319919
G02 X67.437318 Y26.523294  I27.267609 J-115.473352
G02 X73.053726 Y27.444607  I23.270608 J-124.279990
G02 X78.691118 Y28.206813  I69.765091 J-494.765004
G02 X82.240781 Y28.565353  I8.156253 J-62.998875
G02 X85.825423 Y28.341513  I0.967977 J-13.313216
G02 X86.313930 Y28.220811  I-1.098740 J-5.495759
G02 X86.786511 Y28.008802  I-0.546689 J-1.851308
G02 X87.351409 Y27.491334  I-1.096331 J-1.763889
G02 X87.824626 Y26.646095  I-2.914780 J-2.186962
G02 X88.107260 Y25.525050  I-4.133718 J-1.638330
G02 X88.062362 Y24.414006  I-3.531988 J-0.413699
G02 X87.483620 Y23.123949  I-3.113231 J0.621802
G02 X86.591566 Y22.094812  I-8.013276 J6.044712
G02 X83.020272 Y19.183139  I-15.624714 J15.518386
G02 X79.584372 Y17.195520  I-19.855509 J30.359696
G02 X75.117366 Y15.172109  I-25.036389 J49.329362
G02 X70.540252 Y13.596900  I-18.177767 J45.381950
G02 X65.666766 Y12.471704  I-12.669053 J43.755908
G02 X60.816206 Y11.917631  I-7.176511 J41.317039
G02 X53.853650 Y12.098266  I-2.375141 J42.726316
G02 X46.802448 Y13.334726  I5.802217 J53.812276
G02 X44.712688 Y13.950639  I5.544113 J22.664042
G02 X42.682002 Y15.013998  I2.524941 J7.292527
G02 X41.196199 Y16.462343  I4.347104 J5.945819
G02 X39.979102 Y18.681456  I6.484190 J4.999648
G02 X39.528893 Y20.508920  I8.439032 J3.048205
G02 X39.550541 Y22.304722  I6.011603 J0.825562
G02 X40.754478 Y24.920873  I5.320222 J-0.863236
G02 X42.714969 Y26.856005  I11.682357 J-9.874791
G02 X45.130889 Y28.545648  I11.954696 J-14.521293
G02 X47.395836 Y29.462866  I4.228015 J-7.185416
G02 X50.450310 Y29.629842  I1.977792 J-8.158489
G02 X53.658760 Y28.888380  I-2.147384 J-16.604680
G02 X55.293034 Y28.197644  I-3.808774 J-11.290212
G02 X56.823188 Y27.032770  I-2.504762 J-4.877628
G02 X57.821887 Y25.567732  I-4.506878 J-4.145203
G02 X58.438209 Y23.586269  I-6.182029 J-3.009468
G02 X58.421387 Y21.253134  I-7.359454 J-1.113565
G02 X57.745921 Y19.167560  I-7.302350 J1.212880
G02 X56.855887 Y17.839768  I-5.569266 J2.770946
G02 X55.834206 Y16.913802  I-4.514128 J3.954117
G02 X54.427084 Y16.162865  I-3.559488 J4.976025
G02 X52.999440 Y15.764827  I-2.980023 J7.929170
G02 X51.610348 Y15.619332  I-1.607216 J8.640873
G02 X50.197638 Y15.720634  I-0.182588 J7.354897
G02 X49.367758 Y15.934148  I0.853202 J5.035723
G02 X48.582617 Y16.383505  I0.814598 J2.333909
G02 X48.174656 Y16.829665  I1.556333 J1.832680
G02 X47.824397 Y17.488288  I2.427065 J1.713173
G02 X47.690092 Y17.961863  I2.655769 J1.009004
G02 X47.692531 Y18.416306  I1.151853 J0.221047
G02 X47.846605 Y18.786436  I1.017102 J-0.206258
G02 X48.088124 Y19.079178  I1.565330 J-1.045431
G02 X48.813516 Y19.540397  I1.428572 J-1.445771
G02 X49.538632 Y19.742046  I1.588922 J-4.309078
G02 X51.408133 Y19.932328  I2.016429 J-10.532282
G02 X53.263484 Y19.874621  I0.283983 J-20.724614
G02 X55.027565 Y19.679453  I-1.948490 J-25.682036
G02 X56.790539 Y19.344325  I-2.994669 J-20.558461
G02 X58.658572 Y18.844498  I-7.308023 J-31.053363
G03 X60.515391 Y18.372117  I6.464415 J21.524579
G03 X63.202660 Y18.019480  I3.660517 J17.479490
G03 X65.954160 Y17.930203  I3.396316 J62.228298
G03 X68.234850 Y18.009159  I0.261199 J25.434024
G03 X70.437232 Y18.637264  I-0.461417 J5.793173
G03 X71.219660 Y19.142627  I-2.191181 J4.250869
G03 X71.986639 Y19.918814  I-2.825733 J3.559244
G03 X72.383324 Y20.541336  I-3.202404 J2.478295
G03 X72.612993 Y21.288743  I-1.963129 J1.012235
G03 X72.596256 Y21.959652  I-2.308413 J0.278077
G03 X72.415197 Y22.614483  I-3.354073 J-0.574945
G03 X71.951197 Y23.435578  I-3.044376 J-1.178727
G03 X71.393248 Y23.984416  I-2.309815 J-1.790134
G03 X70.501334 Y24.445138  I-1.819821 J-2.429307
G03 X69.580431 Y24.691477  I-2.956930 J-9.209561
G03 X68.167778 Y24.944186  I-4.283998 J-19.872950
G03 X66.778630 Y25.045009  I-1.421242 J-9.961687
G03 X65.300624 Y24.954987  I-0.036289 J-11.582343
G02 X63.812000 Y24.779859  I-12.127042 J96.668020
G02 X62.292542 Y24.630158  I-7.475802 J68.092836
G03 X60.779436 Y24.426331  I1.417614 J-16.241768
G03 X59.806439 Y24.212617  I2.481875 J-13.621297
G03 X58.834753 Y23.940223  I5.961418 J-23.134930

M5
(End cutting path id: path194733)


(Start cutting path id: path194725)
(Change tool to Default tool)


G00 X38.259476 Y33.551881
M3S030
G01  F100.0(Penetrate)
G03 X38.493804 Y33.837469  I-585.315093 J480.495713 F3000.000000
G02 X38.727975 Y34.122546  I179.866408 J-147.508857

M5
(End cutting path id: path194725)

(Start cutting path id: path194735)
(Change tool to Default tool)

G00 X88.048415 Y37.257157
M3S030
G01  F100.0(Penetrate)
G03 X87.911558 Y37.094615  I1.330731 J-1.259325 F3000.000000
G03 X87.785638 Y36.904902  I1.634672 J-1.221651
G03 X87.689322 Y36.720693  I1.837417 J-1.077995
G03 X87.606542 Y36.518650  I2.247518 J-1.038820

M5
(End cutting path id: path194735)

(Footer)
M5
G00 X0.0000 Y0.0000
M2
(Using default footer. To add your own footer create file "footer" in the output dir.)
(end)
%